X: 20982
T: PHANTOM SETT (tune 2)
C:
%R: reel
B: Elias Howe "The Musician's Companion" 1843 p.98 #2
S: http://imslp.org/wiki/The_Musician's_Companion_(Howe,_Elias)
Z: 2015 John Chambers <jc:trillian.mit.edu>
M: 2/4
L: 1/16
K: Bb
% - - - - - - - - - - - - - - - - - - - - - - - - - - - - -
V: 1 name="2"
ff |\
fbdd dgBB | BdFF FDBF | BABc de=ef | g3f f2ff |\
fbdd dgBB | BdFF FDBF | BABc e=egf | B4 z2 H|]
dd |\
dccc c2ff | (f=eee) e2gg | gbag g=eeg | ff=e_e c4 |\
(cBBB) B2d-d | ddcc cde=e | gff=e geed | BAB=B cde"^D.C."=e |]
cc |\
cFFF FAce | dBBB Bdfb | gfed cBAG | FGAB c2cc |\
cFAc ecAF | dFBd fdBG | Gceg f=e_ec | B=Bc^c "^D.C."d2 |]
% - - - - - - - - - - Dance description - - - - - - - - - -
%%begintext align
%% Forward two,
%% cross over,
%% chassa de chassa,
%% cross back,
%% ladies chain,
%% promenade four,
%% next two, &c.
%%endtext
% - - - - - - - - - - - - - - - - - - - - - - - - - - - - -
%%sep 1 1 300

%%sep 1 1 500

